resources/svg/info-circle.svg

<svg width="13px" height="13px" viewBox="0 0 13 13" version="1.1" xmlns="http://www.w3.org/2000/svg" xmlns:xlink="http://www.w3.org/1999/xlink">
    <g stroke="none" stroke-width="1" fill="none" fill-rule="evenodd">
        <g transform="translate(-460.000000, -606.000000)">
            <g transform="translate(461.000000, 607.000000)">
                <circle stroke="#19A1E6" fill-rule="nonzero" cx="5.5" cy="5.5" r="5.5"></circle>
                <path d="M6.69042969,9 L4.36132812,9 L4.36132812,8.67773438 C4.43619829,8.67122393 4.51350872,8.66471357 4.59326172,8.65820312 C4.67301472,8.65169268 4.74218721,8.63867197 4.80078125,8.61914062 C4.89192754,8.5898436 4.95947244,8.53857458 5.00341797,8.46533203 C5.0473635,8.39208948 5.06933594,8.29687559 5.06933594,8.1796875 L5.06933594,5.20605469 C5.06933594,5.1018875 5.04573591,5.00667361 4.99853516,4.92041016 C4.9513344,4.8341467 4.88541709,4.76171904 4.80078125,4.703125 C4.73893198,4.6640623 4.64941465,4.63069675 4.53222656,4.60302734 C4.41503848,4.57535793 4.30761768,4.55826826 4.20996094,4.55175781 L4.20996094,4.234375 L5.90917969,4.12695312 L5.97753906,4.1953125 L5.97753906,8.12109375 C5.97753906,8.23502661 5.9995115,8.32942671 6.04345703,8.40429688 C6.08740256,8.47916704 6.15657505,8.53450503 6.25097656,8.5703125 C6.3225915,8.59960952 6.39257778,8.62320955 6.4609375,8.64111328 C6.52929722,8.65901702 6.60579385,8.67122393 6.69042969,8.67773438 L6.69042969,9 Z M6.07519531,2.22753906 C6.07519531,2.41308687 6.01416077,2.57503186 5.89208984,2.71337891 C5.77001892,2.85172595 5.61946704,2.92089844 5.44042969,2.92089844 C5.27441323,2.92089844 5.1303717,2.85498113 5.00830078,2.72314453 C4.88622986,2.59130793 4.82519531,2.44075605 4.82519531,2.27148438 C4.82519531,2.09244702 4.88622986,1.93619858 5.00830078,1.80273438 C5.1303717,1.66927017 5.27441323,1.60253906 5.44042969,1.60253906 C5.62597749,1.60253906 5.77815696,1.6652012 5.89697266,1.79052734 C6.01578835,1.91585349 6.07519531,2.06152261 6.07519531,2.22753906 Z" id="i" fill="#19A1E6"></path>
            </g>
        </g>
    </g>
</svg>

<svg xmlns="http://www.w3.org/2000/svg" viewBox="0 0 13 13"><g fill="none" fill-rule="evenodd" transform="translate(1 1)"><circle cx="5.5" cy="5.5" r="5.5" stroke="#19A1E6"/><path fill="#19A1E6" d="M6.69 9H4.361v-.322l.232-.02a.889.889 0 0 0 .208-.039.351.351 0 0 0 .202-.154.55.55 0 0 0 .066-.285V5.206c0-.104-.023-.2-.07-.286a.63.63 0 0 0-.198-.217.904.904 0 0 0-.269-.1 1.989 1.989 0 0 0-.322-.051v-.318l1.7-.107.068.068v3.926c0 .114.022.208.065.283a.39.39 0 0 0 .208.166 1.303 1.303 0 0 0 .44.107V9Zm-.615-6.772a.711.711 0 0 1-.183.485.579.579 0 0 1-.452.208.57.57 0 0 1-.432-.198.672.672 0 0 1 0-.92.568.568 0 0 1 .432-.2.6.6 0 0 1 .457.188.616.616 0 0 1 .178.437Z"/></g></svg>
